icons/editor-palette-filled.svg

<svg width="25" height="24" viewBox="0 0 25 24" fill="none" xmlns="http://www.w3.org/2000/svg">
<g id="palette">
<path id="Icon" d="M12.2506 6.00039V6.03362M6.28362 12.0006H6.25039M16.4933 7.75794L16.4699 7.78143M8.03157 16.2197L8.00807 16.2432M8.03157 7.78106L8.00807 7.75756M12.2504 21.6004C6.94846 21.6004 2.65039 17.3023 2.65039 12.0004C2.65039 6.69846 6.94846 2.40039 12.2504 2.40039C17.5523 2.40039 21.8504 6.69846 21.8504 12.0004C21.8504 13.6145 20.359 14.6884 18.745 14.6884H18.1184C17.7948 14.6884 17.4757 14.7637 17.1864 14.9084C16.1569 15.4231 15.7397 16.6749 16.2544 17.7044C16.3991 17.9937 16.4744 18.3128 16.4744 18.6363V18.8255C16.4744 19.9261 15.8568 20.9683 14.7954 21.2594C13.9849 21.4817 13.1315 21.6004 12.2504 21.6004Z" stroke="black" stroke-width="2" stroke-linecap="round" stroke-linejoin="round"/>
</g>
</svg>

<svg xmlns="http://www.w3.org/2000/svg" width="25" height="24" fill="none" viewBox="0 0 25 24"><path stroke="currentColor" stroke-linecap="round" stroke-linejoin="round" stroke-width="2" d="M12.25 6v.034M6.285 12H6.25m10.243-4.243-.023.023M8.032 16.22l-.024.023m.024-8.462-.024-.023M12.25 21.6a9.6 9.6 0 1 1 9.6-9.6c0 1.614-1.491 2.688-3.105 2.688h-.627a2.083 2.083 0 0 0-1.864 3.016c.145.29.22.609.22.932v.19c0 1.1-.617 2.142-1.679 2.433a9.6 9.6 0 0 1-2.545.341"/></svg>
